src/icons/svg/HeartOutline.svg

<svg width="24" height="24" viewBox="0 0 24 24" fill="none" xmlns="http://www.w3.org/2000/svg">
<path d="M12.208 21.16L12 21.021C11.584 20.743 2.00702 14.637 2.00702 8.738C2.00702 6.032 3.18702 4.019 5.13002 3.117C7.21202 2.145 9.91802 2.701 12.208 4.574C14.22 2.7 16.719 2.076 18.939 3.047C21.09 3.949 22.409 6.1 22.409 8.807C22.409 14.636 12.763 20.812 12.416 21.09L12.208 21.159V21.16ZM7.35102 3.326C6.65702 3.326 6.03302 3.465 5.47702 3.742C3.74202 4.505 2.77102 6.379 2.77102 8.738C2.77102 13.734 10.89 19.355 12.278 20.257C13.666 19.355 21.785 13.734 21.785 8.738C21.785 6.309 20.675 4.436 18.732 3.672C16.72 2.839 14.36 3.464 12.556 5.268L12.348 5.546L12.001 5.338C10.544 4.02 8.87802 3.326 7.35202 3.326H7.35102Z" fill="#1C2125"/>
</svg>

<!-- Generated by IcoMoon.io -->
<svg version="1.1" xmlns="http://www.w3.org/2000/svg" width="24" height="24" viewBox="0 0 24 24">
<title>heart-outline</title>
<path fill="#444" d="M12.208 21.16l-0.208-0.139c-0.416-0.278-9.993-6.384-9.993-12.283 0-2.706 1.18-4.719 3.123-5.621 2.082-0.972 4.788-0.416 7.078 1.457 2.012-1.874 4.511-2.498 6.731-1.527 2.151 0.902 3.47 3.053 3.47 5.76 0 5.829-9.646 12.005-9.993 12.283l-0.208 0.069zM7.351 3.326c-0.694 0-1.318 0.139-1.874 0.416-1.735 0.763-2.706 2.637-2.706 4.996 0 4.996 8.119 10.617 9.507 11.519 1.388-0.902 9.507-6.523 9.507-11.519 0-2.429-1.11-4.302-3.053-5.066-2.012-0.833-4.372-0.208-6.176 1.596l-0.208 0.278-0.347-0.208c-1.457-1.318-3.123-2.012-4.649-2.012z"></path>
</svg>
